Hatter-kde-dark/actions/24/path-mode-polyline.svg

<?xml version="1.0" encoding="UTF-8"?>
<svg viewBox="0 0 24 24" xmlns="http://www.w3.org/2000/svg">
 <defs id="defs3051">
  <style id="current-color-scheme" type="text/css">.ColorScheme-Text {
        color:#dedede;
      }</style>
 </defs>
 <path class="ColorScheme-Text" d="m5 5v3h2.0664l6.9336 10.402v2.5977h3v-3h-2.0664l-6.9336-10.4v-0.59961h10v1h3v-3h-3v1h-10v-1h-3zm1 1h1v1h-1v-1zm13 0h1v1h-1v-1zm-4 13h1v1h-1v-1z" fill="currentColor"/>
</svg>

<svg xmlns="http://www.w3.org/2000/svg" viewBox="0 0 24 24">
  <defs id="defs3051">
    <style type="text/css" id="current-color-scheme">
      .ColorScheme-Text {
        color:#dedede;
      }
      </style>
  </defs>
 <path style="fill:currentColor;fill-opacity:1;stroke:none" 
     d="M 5 5 L 5 8 L 7.0664062 8 L 14 18.402344 L 14 21 L 17 21 L 17 18 L 14.933594 18 L 8 7.5996094 L 8 7 L 18 7 L 18 8 L 21 8 L 21 5 L 18 5 L 18 6 L 8 6 L 8 5 L 5 5 z M 6 6 L 7 6 L 7 7 L 6 7 L 6 6 z M 19 6 L 20 6 L 20 7 L 19 7 L 19 6 z M 15 19 L 16 19 L 16 20 L 15 20 L 15 19 z "
     class="ColorScheme-Text"
     />
</svg>
